polaris-icons/icons/new-icons/ConnectMinor.svg

<svg width="20" height="20" viewBox="0 0 20 20" fill="none" xmlns="http://www.w3.org/2000/svg">
<path d="M10.9507 11C11.21 10.5516 11.6948 10.25 12.25 10.25C13.0784 10.25 13.75 10.9216 13.75 11.75C13.75 12.5784 13.0784 13.25 12.25 13.25C11.6948 13.25 11.21 12.9484 10.9507 12.5H6.25C4.73122 12.5 3.5 11.2688 3.5 9.75V6.25C3.5 4.73122 4.73122 3.5 6.25 3.5H11.75C12.1642 3.5 12.5 3.83579 12.5 4.25C12.5 4.66421 12.1642 5 11.75 5H6.25C5.55964 5 5 5.55964 5 6.25V9.75C5 10.4404 5.55964 11 6.25 11H10.9507Z" fill="#4A4A4A"/>
<path d="M14 16.25C15.5188 16.25 16.75 15.0188 16.75 13.5V10C16.75 8.48122 15.5188 7.25 14 7.25H9.29933C9.03997 6.80165 8.55521 6.5 8 6.5C7.17157 6.5 6.5 7.17157 6.5 8C6.5 8.82843 7.17157 9.5 8 9.5C8.55521 9.5 9.03997 9.19835 9.29933 8.75H14C14.6904 8.75 15.25 9.30964 15.25 10V13.5C15.25 14.1904 14.6904 14.75 14 14.75H8.5C8.08579 14.75 7.75 15.0858 7.75 15.5C7.75 15.9142 8.08579 16.25 8.5 16.25H14Z" fill="#4A4A4A"/>
</svg>

<svg viewBox="0 0 20 20" xmlns="http://www.w3.org/2000/svg"><path d="M10.95 11a1.5 1.5 0 1 1 0 1.5h-4.7a2.75 2.75 0 0 1-2.75-2.75v-3.5a2.75 2.75 0 0 1 2.75-2.75h5.5a.75.75 0 0 1 0 1.5h-5.5c-.69 0-1.25.56-1.25 1.25v3.5c0 .69.56 1.25 1.25 1.25h4.7Z" fill="#5C5F62"/><path d="M14 16.25a2.75 2.75 0 0 0 2.75-2.75v-3.5a2.75 2.75 0 0 0-2.75-2.75h-4.7a1.5 1.5 0 1 0 0 1.5h4.7c.69 0 1.25.56 1.25 1.25v3.5c0 .69-.56 1.25-1.25 1.25h-5.5a.75.75 0 0 0 0 1.5h5.5Z" fill="#5C5F62"/></svg>
